build/img/logo-mobile.svg

<svg width="130" height="61" viewBox="0 0 130 61" fill="none" xmlns="http://www.w3.org/2000/svg">
<path fill-rule="evenodd" clip-rule="evenodd" d="M130 22.0559H0V0H130V22.0559Z" fill="#E52D29"/>
<path fill-rule="evenodd" clip-rule="evenodd" d="M130 60.3855H0V24.2244H130V60.3855Z" fill="#E52D29"/>
<path fill-rule="evenodd" clip-rule="evenodd" d="M16.2528 19.0552C14.8271 19.0552 13.4014 18.7485 12.2609 17.8067C11.1861 16.9306 10.7694 15.7041 10.7694 14.3242C10.7694 12.9663 11.2081 11.7835 12.2609 10.8636C13.3795 9.9218 14.8271 9.59326 16.2747 9.59326C16.6695 9.59326 17.0643 9.61516 17.4591 9.65897C17.7881 9.68087 18.1391 9.74658 18.4681 9.81229C18.7532 9.87799 19.0164 9.96561 19.3015 10.0751C19.5209 10.1408 19.7841 10.2284 20.0034 10.3379L20.135 10.3818V12.8129H19.5867L19.5209 12.7691C19.3674 12.6596 19.2138 12.5501 19.0383 12.4406C18.8409 12.3092 18.6216 12.1778 18.3803 12.0683C18.1391 11.9587 17.8759 11.8492 17.5907 11.7835C17.3056 11.6959 16.9985 11.6521 16.6915 11.6521C16.3625 11.6521 16.0115 11.6959 15.6825 11.7835C15.3754 11.893 15.0903 12.0683 14.8271 12.2654C14.5639 12.4844 14.3665 12.7691 14.213 13.0977C14.0375 13.47 13.9717 13.9081 13.9717 14.3242C13.9717 14.7623 14.0375 15.2222 14.2349 15.5946C14.3884 15.9231 14.5858 16.2078 14.871 16.4269C15.1342 16.624 15.4193 16.7554 15.7483 16.843C16.0554 16.9525 16.3844 16.9963 16.7134 16.9963C17.0424 16.9963 17.3714 16.9525 17.6785 16.8649C17.9417 16.7773 18.2268 16.6897 18.4681 16.5583C18.6874 16.4488 18.8848 16.3393 19.0822 16.2078C19.2357 16.0983 19.4112 15.9888 19.5648 15.8793L19.6086 15.8355H20.135V18.2448L20.0034 18.2886C19.7622 18.3762 19.5428 18.4638 19.3015 18.5514C19.0383 18.639 18.7532 18.7266 18.49 18.7923C18.161 18.858 17.832 18.9238 17.503 18.9895C17.1082 19.0333 16.6695 19.0552 16.2528 19.0552ZM103.373 11.9368H101.179C101.157 12.1559 101.136 12.3968 101.136 12.6377C101.114 12.9005 101.092 13.1853 101.07 13.47C101.026 14.1271 100.96 14.7842 100.807 15.4412C100.697 15.9012 100.587 16.3831 100.39 16.8211C100.236 17.1496 100.061 17.4782 99.8415 17.7629C99.6879 17.9381 99.5124 18.1353 99.315 18.2886C99.0299 18.5076 98.7009 18.6609 98.3719 18.7704C97.999 18.8799 97.6481 18.9457 97.2752 18.9457C97.012 18.9457 96.7708 18.9238 96.5076 18.9238C96.3321 18.9018 96.1566 18.9018 95.9811 18.8799L95.7618 18.858V16.4926H96.1347C96.1786 16.4926 96.2224 16.4926 96.2663 16.4926C96.3321 16.4926 96.376 16.4926 96.4198 16.4926C96.5734 16.4926 96.705 16.4707 96.8585 16.4488C96.9462 16.4488 97.0778 16.405 97.1656 16.3393C97.5165 16.0983 97.692 15.6822 97.7797 15.266C97.8674 14.9594 97.9113 14.6309 97.9552 14.3023C97.999 13.8424 98.0429 13.4043 98.0648 12.9444C98.0868 12.5282 98.1087 12.0902 98.1306 11.674C98.1306 11.1264 98.1526 10.5789 98.1745 10.0313L98.1964 9.79038H106.575V18.8799H103.373V11.9368ZM90.5636 17.4125H87.12L86.5936 18.8799H83.0404L87.0542 9.79038H90.7171L94.7309 18.8799H91.09L90.5636 17.4125ZM89.7959 15.2441L88.8528 12.572L87.8877 15.2441H89.7959ZM115.063 17.4125H111.62L111.093 18.8799H107.54L111.554 9.79038H115.239L119.231 18.8799H115.59L115.063 17.4125ZM114.296 15.2441L113.353 12.572L112.387 15.2441H114.296ZM32.7029 14.3242C32.7029 15.7041 32.2643 16.9087 31.2334 17.8067C30.1148 18.7485 28.6891 19.0552 27.2634 19.0552C25.8377 19.0552 24.3901 18.7485 23.2935 17.7848C22.2626 16.8868 21.8239 15.6822 21.8239 14.3242C21.8239 12.9882 22.2626 11.7835 23.2935 10.8636C24.3901 9.9218 25.8377 9.61516 27.2634 9.61516C28.6891 9.61516 30.1148 9.9218 31.2334 10.8636C32.2643 11.7616 32.7029 12.9663 32.7029 14.3242ZM25.7719 12.3092C25.5526 12.5282 25.3991 12.8129 25.2894 13.0977C25.1359 13.4919 25.092 13.93 25.092 14.3242C25.092 14.7404 25.1359 15.1784 25.2675 15.5508C25.3771 15.8574 25.5307 16.1202 25.75 16.3612C25.9474 16.5583 26.1887 16.7116 26.4519 16.7992C26.7151 16.8868 26.9783 16.9306 27.2634 16.9306C27.5486 16.9306 27.8337 16.8868 28.0969 16.7773C28.3601 16.6897 28.5794 16.5364 28.7768 16.3393C28.9962 16.1202 29.1497 15.8355 29.2594 15.5508C29.391 15.1784 29.4348 14.7185 29.4348 14.3242C29.4348 13.93 29.391 13.4919 29.2374 13.0977C29.1278 12.8129 28.9962 12.5282 28.7768 12.3092C28.5794 12.1121 28.3601 11.9587 28.0969 11.8711C27.8337 11.7835 27.5486 11.7178 27.2634 11.7178C27.0002 11.7178 26.7151 11.7616 26.4519 11.8492C26.1887 11.9368 25.9693 12.1121 25.7719 12.3092ZM41.3447 11.9368H39.1295C39.1295 12.1559 39.1075 12.3968 39.0856 12.6377C39.0856 12.9005 39.0637 13.1853 39.0417 13.47C38.9979 14.1271 38.9101 14.7842 38.7785 15.4412C38.6689 15.9012 38.5373 16.3831 38.3398 16.8211C38.2082 17.1496 38.0328 17.4782 37.8134 17.7629C37.638 17.9381 37.4625 18.1353 37.2651 18.2886C37.0019 18.5076 36.6729 18.6609 36.322 18.7704C35.971 18.8799 35.5982 18.9457 35.2253 18.9457C34.984 18.9457 34.7208 18.9238 34.4795 18.9238C34.3041 18.9018 34.1286 18.9018 33.9531 18.8799L33.7338 18.858V16.4926H34.0847H34.1067C34.1505 16.4926 34.1944 16.4926 34.2383 16.4926C34.2821 16.4926 34.3479 16.4926 34.3918 16.4926C34.5234 16.4926 34.677 16.4707 34.8086 16.4488C34.9182 16.4488 35.0498 16.405 35.1376 16.3393C35.4666 16.0983 35.664 15.6822 35.7517 15.266C35.8175 14.9594 35.8833 14.6309 35.9052 14.3023C35.971 13.8424 36.0149 13.4043 36.0368 12.9444C36.0588 12.5282 36.0807 12.0902 36.0807 11.674C36.1026 11.1264 36.1246 10.5789 36.1465 10.0313V9.79038H44.547V18.8799H41.3447V11.9368ZM57.4439 14.3242C57.4439 15.7041 57.0053 16.9087 55.9744 17.8067C54.8558 18.7485 53.4301 19.0552 52.0044 19.0552C50.5788 19.0552 49.1311 18.7485 48.0345 17.7848C47.0036 16.8868 46.5649 15.6822 46.5649 14.3242C46.5649 12.9882 47.0036 11.7835 48.0345 10.8636C49.1311 9.9218 50.5788 9.61516 52.0044 9.61516C53.4301 9.61516 54.8558 9.9218 55.9744 10.8636C57.0053 11.7616 57.4439 12.9663 57.4439 14.3242ZM50.513 12.3092C50.2936 12.5282 50.1401 12.8129 50.0304 13.0977C49.8769 13.4919 49.833 13.93 49.833 14.3242C49.833 14.7404 49.8769 15.1784 50.0085 15.5508C50.1182 15.8574 50.2717 16.1202 50.491 16.3612C50.6884 16.5583 50.9297 16.7116 51.1929 16.7992C51.4561 16.8868 51.7193 16.9306 52.0044 16.9306C52.2896 16.9306 52.5747 16.8868 52.8379 16.7773C53.1011 16.6897 53.3204 16.5364 53.5178 16.3393C53.7372 16.1202 53.8907 15.8355 54.0004 15.5508C54.132 15.1784 54.1759 14.7185 54.1759 14.3242C54.1759 13.93 54.132 13.4919 53.9785 13.0977C53.8688 12.8129 53.7372 12.5282 53.5178 12.3092C53.3204 12.1121 53.1011 11.9587 52.8379 11.8711C52.5528 11.7835 52.2896 11.7178 52.0044 11.7178C51.7412 11.7178 51.4561 11.7616 51.1929 11.8492C50.9297 11.9368 50.7104 12.1121 50.513 12.3092ZM67.4895 14.6089L65.9542 18.639H63.7827L62.2474 14.6089V18.8799H59.2206V9.79038H62.7299L64.9452 15.1565L67.1386 9.79038H70.6699V18.8799H67.4895V14.6089ZM76.5042 11.9368V13.0101H78.0176C78.6098 13.0101 79.202 13.032 79.7723 13.1196C80.2987 13.2072 80.8032 13.3824 81.2418 13.6671C81.6366 13.9081 81.9437 14.2147 82.1411 14.6309C82.3385 15.0251 82.4262 15.4412 82.4262 15.8793C82.4262 16.3393 82.3166 16.7773 82.0972 17.1715C81.8779 17.5439 81.5708 17.8724 81.198 18.1134C80.7593 18.3981 80.2767 18.5952 79.7723 18.7047C79.202 18.8361 78.5659 18.8799 77.9737 18.8799H73.3238V9.79038H81.6147V11.9368H76.5042ZM79.0923 15.6165C79.0704 15.5289 79.0046 15.4412 78.9388 15.3755C78.8072 15.2879 78.6317 15.2222 78.5001 15.1784C78.215 15.1127 77.886 15.0908 77.6228 15.0908H76.5042V16.7773H77.6228C77.9957 16.7773 78.4563 16.7335 78.7853 16.5364C79.0265 16.405 79.1581 16.2078 79.1581 15.945C79.1581 15.8355 79.1362 15.726 79.0923 15.6165Z" fill="#FEFEFE"/>
<path fill-rule="evenodd" clip-rule="evenodd" d="M66.1515 39.8407C66.1515 42.9728 65.2303 45.7982 62.8834 47.9447C60.4488 50.1349 57.2685 50.8796 54.0442 50.8796C50.7981 50.8796 47.6177 50.1349 45.1831 47.9009C42.8801 45.7544 41.9369 42.9509 41.9369 39.8407C41.9369 36.7306 42.8581 33.9051 45.1831 31.7806C47.6177 29.5465 50.82 28.8237 54.0442 28.8237C57.2685 28.8237 60.4488 29.5465 62.8834 31.7587C65.2303 33.8832 66.1515 36.7306 66.1515 39.8407ZM29.8954 40.5416L26.1887 50.2882H20.9246L17.2178 40.5416V50.8577H9.87012V28.8237H18.3803L23.7321 41.0673L29.062 28.8237H37.5941V50.8577H29.8954V40.5416ZM112.914 34.2775H108.132C108.088 34.8031 108.067 35.3507 108.045 35.8764C108.001 36.5334 107.957 37.1686 107.913 37.8257C107.803 39.3589 107.65 40.9139 107.321 42.4252C107.101 43.4984 106.816 44.6374 106.378 45.6449C106.071 46.3896 105.676 47.1562 105.171 47.8133C104.82 48.2513 104.426 48.7113 103.987 49.0617C103.373 49.5874 102.649 49.9378 101.881 50.2006C101.07 50.4416 100.258 50.5949 99.4247 50.5949C98.8544 50.5949 98.2841 50.573 97.7358 50.5292C97.3629 50.5073 96.9462 50.5073 96.5733 50.4635L96.025 50.3978V44.8345H96.8804H96.9023C97.012 44.8345 97.1217 44.8564 97.2313 44.8564C97.341 44.8564 97.4507 44.8783 97.5603 44.8783C97.8674 44.8783 98.1964 44.8126 98.4816 44.7688C98.7009 44.725 98.986 44.6593 99.1615 44.5279C99.9292 43.9146 100.302 42.9728 100.521 42.0529C100.675 41.2863 100.785 40.5197 100.872 39.7531C101.004 38.7237 101.092 37.6505 101.157 36.5991C101.201 35.6135 101.245 34.6498 101.267 33.6642C101.289 32.3719 101.333 31.1016 101.399 29.8093L101.421 29.2399H120.108V50.4635H112.914V34.2775ZM85.124 34.2775H80.3206C80.2987 34.8031 80.2767 35.3507 80.2329 35.8764C80.2109 36.5334 80.1671 37.1686 80.1232 37.8257C80.0135 39.3589 79.8381 40.9139 79.531 42.4252C79.3117 43.4984 79.0265 44.6374 78.5878 45.6449C78.2588 46.3896 77.864 47.1562 77.3815 47.8133C77.0306 48.2513 76.6358 48.7113 76.1971 49.0617C75.561 49.5874 74.8372 49.9378 74.0695 50.2006C73.2799 50.4416 72.4465 50.5949 71.613 50.5949C71.0646 50.5949 70.4944 50.573 69.9241 50.5292C69.5512 50.5073 69.1345 50.5073 68.7616 50.4635L68.2352 50.3978V44.8345H69.0906H69.1126C69.2222 44.8345 69.31 44.8564 69.4196 44.8564C69.5293 44.8564 69.6609 44.8783 69.7706 44.8783C70.0557 44.8783 70.3847 44.8126 70.6918 44.7688C70.8892 44.725 71.1743 44.6593 71.3498 44.5279C72.1175 43.9146 72.5123 42.9728 72.7097 42.0529C72.8851 41.2863 72.9948 40.5197 73.0825 39.7531C73.1922 38.7237 73.2799 37.6505 73.3457 36.5991C73.4115 35.6135 73.4554 34.6498 73.4773 33.6642C73.4993 32.3719 73.5431 31.1016 73.587 29.8093L73.6089 29.2399H92.3182V50.4635H85.124V34.2775ZM50.7761 35.1317C50.2936 35.6354 49.9427 36.3144 49.7233 36.9715C49.3943 37.8914 49.3066 38.8989 49.3066 39.8407C49.3066 40.7825 49.3724 41.812 49.7014 42.71C49.9207 43.367 50.2717 44.0022 50.7542 44.5279C51.1709 44.9878 51.6754 45.3602 52.2457 45.5573C52.8379 45.7763 53.4301 45.8858 54.0662 45.8858C54.6803 45.8858 55.2944 45.7763 55.8867 45.5354C56.4569 45.3164 56.9395 44.9878 57.3562 44.5279C57.8387 43.9803 58.1677 43.3451 58.409 42.6881C58.738 41.812 58.8038 40.7387 58.8038 39.8407C58.8038 38.8989 58.6941 37.8914 58.3871 36.9934C58.1458 36.3363 57.8387 35.6573 57.3343 35.1317C56.9175 34.6936 56.435 34.3432 55.8428 34.1242C55.2725 33.9051 54.6803 33.7956 54.0662 33.7956C53.452 33.7956 52.8379 33.8832 52.2676 34.1022C51.6973 34.2994 51.1929 34.6936 50.7761 35.1317Z" fill="#FEFEFE"/>
</svg>

<svg width="130" height="61" fill="none" xmlns="http://www.w3.org/2000/svg"><path fill-rule="evenodd" clip-rule="evenodd" d="M130 22.056H0V0h130v22.056zm0 38.33H0V24.224h130v36.162z" fill="#E52D29"/><path fill-rule="evenodd" clip-rule="evenodd" d="M16.253 19.055c-1.426 0-2.852-.306-3.992-1.248-1.075-.876-1.492-2.103-1.492-3.483 0-1.358.44-2.54 1.492-3.46 1.119-.942 2.566-1.27 4.014-1.27.395 0 .79.021 1.184.065.33.022.68.088 1.01.153.284.066.547.154.832.263.22.066.483.153.702.263l.132.044v2.43h-.548l-.066-.043a9.174 9.174 0 00-.483-.328 4.688 4.688 0 00-.658-.373 4.185 4.185 0 00-.79-.284 3.08 3.08 0 00-.898-.132c-.33 0-.68.044-1.01.132a3.283 3.283 0 00-.855.481 2.37 2.37 0 00-.614.833c-.175.372-.241.81-.241 1.226 0 .438.066.898.263 1.27.153.33.35.614.636.833.263.197.548.328.877.416.307.11.636.153.965.153.33 0 .658-.043.965-.131.264-.088.549-.175.79-.307.22-.11.417-.219.614-.35.154-.11.33-.22.483-.329l.044-.043h.526v2.409l-.132.044c-.24.087-.46.175-.701.262a11.38 11.38 0 01-.812.241l-.987.197c-.395.044-.834.066-1.25.066zm87.12-7.118h-2.194c-.022.219-.043.46-.043.7-.022.263-.044.548-.066.833-.044.657-.11 1.314-.263 1.971-.11.46-.22.942-.417 1.38a5.05 5.05 0 01-.549.942 3.98 3.98 0 01-.526.526 3.204 3.204 0 01-.943.481c-.373.11-.724.176-1.097.176-.263 0-.504-.022-.767-.022-.176-.022-.351-.022-.527-.044l-.22-.022v-2.365h.659c.153 0 .285-.022.439-.044a.584.584 0 00.307-.11c.35-.24.526-.657.614-1.073.087-.307.131-.635.175-.964.044-.46.088-.898.11-1.358l.066-1.27c0-.548.022-1.095.043-1.643l.022-.24h8.379v9.089h-3.202v-6.943zm-12.81 5.476H87.12l-.526 1.467H83.04l4.014-9.09h3.663l4.014 9.09H91.09l-.526-1.467zm-.767-2.169l-.943-2.672-.965 2.672h1.908zm25.267 2.169h-3.443l-.527 1.467h-3.553l4.014-9.09h3.685l3.992 9.09h-3.641l-.527-1.467zm-.767-2.169l-.943-2.672-.966 2.672h1.909zm-81.593-.92c0 1.38-.439 2.585-1.47 3.483-1.118.942-2.544 1.248-3.97 1.248-1.425 0-2.873-.306-3.97-1.27-1.03-.898-1.47-2.103-1.47-3.46 0-1.337.44-2.541 1.47-3.461 1.097-.942 2.545-1.249 3.97-1.249 1.426 0 2.852.307 3.97 1.249 1.031.898 1.47 2.102 1.47 3.46zm-6.931-2.015c-.22.22-.373.504-.483.789-.153.394-.197.832-.197 1.226 0 .416.044.854.175 1.227.11.306.264.57.483.81.197.197.439.35.702.438.263.088.526.132.811.132.286 0 .57-.044.834-.154.263-.087.482-.24.68-.438.22-.219.373-.503.482-.788.132-.373.176-.832.176-1.227 0-.394-.044-.832-.198-1.226-.11-.285-.24-.57-.46-.789a1.732 1.732 0 00-.68-.438 2.673 2.673 0 00-.834-.153 2.62 2.62 0 00-.811.131c-.263.088-.483.263-.68.46zm15.573-.372H39.13c0 .219-.023.46-.044.7 0 .263-.022.548-.044.833a15.162 15.162 0 01-.264 1.971c-.11.46-.24.942-.438 1.38a3.977 3.977 0 01-.527.942c-.175.175-.35.372-.548.526-.263.219-.592.372-.943.481-.351.11-.724.176-1.097.176-.241 0-.504-.022-.745-.022-.176-.022-.351-.022-.527-.044l-.22-.022v-2.365h.659c.131 0 .285-.022.417-.044.11 0 .24-.044.329-.11.329-.24.526-.657.614-1.073.066-.307.131-.635.153-.964.066-.46.11-.898.132-1.358.022-.416.044-.854.044-1.27l.066-1.643v-.24h8.4v9.089h-3.202v-6.943zm16.099 2.387c0 1.38-.439 2.585-1.47 3.483-1.118.942-2.544 1.248-3.97 1.248-1.425 0-2.873-.306-3.97-1.27-1.03-.898-1.47-2.103-1.47-3.46 0-1.337.44-2.541 1.47-3.461 1.097-.942 2.545-1.249 3.97-1.249 1.426 0 2.852.307 3.97 1.249 1.031.898 1.47 2.102 1.47 3.46zm-6.931-2.015c-.22.22-.373.504-.483.789-.153.394-.197.832-.197 1.226 0 .416.044.854.175 1.227.11.306.264.57.483.81.197.197.439.35.702.438.263.088.526.132.811.132.286 0 .57-.044.834-.154.263-.087.482-.24.68-.438.22-.219.373-.503.482-.788.132-.373.176-.832.176-1.227 0-.394-.044-.832-.198-1.226-.11-.285-.24-.57-.46-.789a1.732 1.732 0 00-.68-.438c-.285-.088-.548-.153-.834-.153a2.62 2.62 0 00-.811.131c-.263.088-.483.263-.68.46zm16.977 2.3l-1.536 4.03h-2.171l-1.536-4.03v4.27h-3.026V9.79h3.509l2.215 5.367L67.14 9.79h3.53v9.09h-3.18v-4.271zm9.014-2.672v1.073h1.514c.592 0 1.184.022 1.754.11a3.832 3.832 0 011.47.547c.395.241.702.548.9.964.197.394.284.81.284 1.248 0 .46-.11.898-.329 1.293-.22.372-.526.7-.899.941a4.281 4.281 0 01-1.426.592c-.57.131-1.206.175-1.798.175h-4.65V9.79h8.29v2.147h-5.11zm2.588 3.68a.567.567 0 00-.153-.242 1.936 1.936 0 00-.439-.197 4.11 4.11 0 00-.877-.087h-1.119v1.686h1.119c.373 0 .833-.044 1.162-.24.242-.132.373-.33.373-.592a.877.877 0 00-.066-.329zM66.151 39.84c0 3.133-.92 5.958-3.268 8.105-2.434 2.19-5.614 2.935-8.839 2.935-3.246 0-6.426-.745-8.86-2.98-2.304-2.146-3.247-4.95-3.247-8.06 0-3.11.921-5.935 3.246-8.06 2.435-2.233 5.637-2.956 8.861-2.956 3.225 0 6.405.723 8.84 2.935 2.346 2.124 3.267 4.972 3.267 8.082zm-36.256.702l-3.706 9.746h-5.264l-3.707-9.746v10.316H9.87V28.824h8.51l5.352 12.243 5.33-12.243h8.532v22.034h-7.699V40.542zm83.019-6.264h-4.782c-.044.525-.065 1.073-.087 1.598l-.132 1.95c-.11 1.533-.263 3.088-.592 4.6-.22 1.072-.505 2.211-.943 3.219-.307.745-.702 1.511-1.207 2.168-.351.438-.745.898-1.184 1.249-.614.525-1.338.876-2.106 1.139-.811.24-1.623.394-2.456.394-.57 0-1.14-.022-1.69-.066-.372-.022-.789-.022-1.162-.066l-.548-.065v-5.564h.877c.11 0 .22.022.33.022.109 0 .219.022.328.022.307 0 .636-.065.922-.11.219-.043.504-.109.68-.24.767-.613 1.14-1.555 1.359-2.475a27.25 27.25 0 00.351-2.3c.132-1.03.22-2.102.285-3.154.044-.985.088-1.95.11-2.935.022-1.292.066-2.562.132-3.855l.022-.57h18.687v21.225h-7.194V34.278zm-27.79 0h-4.803c-.022.525-.044 1.073-.088 1.598-.022.657-.066 1.293-.11 1.95-.11 1.533-.285 3.088-.592 4.6-.22 1.072-.505 2.211-.943 3.219-.33.745-.724 1.511-1.206 2.168-.351.438-.746.898-1.185 1.249-.636.525-1.36.876-2.127 1.139-.79.24-1.623.394-2.457.394-.548 0-1.119-.022-1.689-.066-.373-.022-.79-.022-1.162-.066l-.527-.065v-5.564h.878c.11 0 .197.022.307.022.11 0 .24.022.35.022.286 0 .615-.065.922-.11.197-.043.482-.109.658-.24.768-.613 1.162-1.555 1.36-2.475.175-.767.285-1.533.373-2.3.11-1.03.197-2.102.263-3.154.066-.985.11-1.95.131-2.935.022-1.292.066-2.562.11-3.855l.022-.57h18.71v21.225h-7.195V34.278zm-34.348.854c-.482.503-.833 1.182-1.053 1.84-.329.92-.416 1.927-.416 2.869 0 .941.065 1.971.394 2.869.22.657.57 1.292 1.053 1.818.417.46.921.832 1.492 1.03a5.15 5.15 0 001.82.328c.614 0 1.228-.11 1.82-.35a3.76 3.76 0 001.47-1.008c.483-.548.812-1.183 1.053-1.84.329-.876.395-1.95.395-2.847 0-.942-.11-1.95-.417-2.848-.241-.657-.548-1.336-1.053-1.861a3.912 3.912 0 00-1.491-1.008 4.912 4.912 0 00-1.777-.328c-.614 0-1.228.087-1.798.306-.57.197-1.075.592-1.492 1.03z" fill="#FEFEFE"/></svg>
